src/assets/icons/tab-bar/contact-tracing-off.svg

<?xml version="1.0" encoding="UTF-8"?>
<svg width="32px" height="24px" viewBox="0 0 32 24" version="1.1" xmlns="http://www.w3.org/2000/svg" xmlns:xlink="http://www.w3.org/1999/xlink">
    <title>tab-contact-tracing-off</title>
    <g id="tab-contact-tracing-off" stroke="none" stroke-width="1" fill="none" fill-rule="evenodd">
        <path d="M13.6315789,19.3392461 C14.3582694,19.3392461 14.9473684,19.9348762 14.9473684,20.6696231 C14.9473684,21.40437 14.3582694,22 13.6315789,22 C12.9048885,22 12.3157895,21.40437 12.3157895,20.6696231 C12.3157895,19.9348762 12.9048885,19.3392461 13.6315789,19.3392461 Z M18.3684211,19.3392461 C19.0951115,19.3392461 19.6842105,19.9348762 19.6842105,20.6696231 C19.6842105,21.40437 19.0951115,22 18.3684211,22 C17.6417306,22 17.0526316,21.40437 17.0526316,20.6696231 C17.0526316,19.9348762 17.6417306,19.3392461 18.3684211,19.3392461 Z M11.2631579,18.54102 C11.2631579,19.2757669 10.6740589,19.8713969 9.94736842,19.8713969 C9.37926922,19.8713969 8.89525934,19.5073762 8.71105819,18.9974459 L10.4112479,17.2956768 C10.9090473,17.4853307 11.2631579,17.9713634 11.2631579,18.54102 Z M22.0526316,17.210643 C22.779322,17.210643 23.3684211,17.8062731 23.3684211,18.54102 C23.3684211,19.2757669 22.779322,19.8713969 22.0526316,19.8713969 C21.3259411,19.8713969 20.7368421,19.2757669 20.7368421,18.54102 C20.7368421,17.8062731 21.3259411,17.210643 22.0526316,17.210643 Z M21.7894737,12.0665188 C21.7894737,15.2994052 19.197438,17.9201774 16,17.9201774 C15.3370579,17.9201774 14.7001407,17.8075157 14.1069554,17.6000953 L21.4935982,10.2141117 C21.6855308,10.796281 21.7894737,11.4191268 21.7894737,12.0665188 Z M21.064653,9.22834618 L13.1369984,17.1554882 C12.6022458,16.8472712 12.1207898,16.455372 11.7100695,15.9974226 L19.9350531,7.77283273 C20.3833054,8.1930021 20.7656483,8.68404717 21.064653,9.22834618 Z M7.31578947,12.9534368 C8.04247993,12.9534368 8.63157895,13.5490669 8.63157895,14.2838137 C8.63157895,15.0185606 8.04247993,15.6141907 7.31578947,15.6141907 C6.58909901,15.6141907 6,15.0185606 6,14.2838137 C6,13.5490669 6.58909901,12.9534368 7.31578947,12.9534368 Z M24.6842105,12.9534368 C25.410901,12.9534368 26,13.5490669 26,14.2838137 C26,15.0185606 25.410901,15.6141907 24.6842105,15.6141907 C23.9575201,15.6141907 23.3684211,15.0185606 23.3684211,14.2838137 C23.3684211,13.5490669 23.9575201,12.9534368 24.6842105,12.9534368 Z M16,6.21286031 C17.159151,6.21286031 18.2387373,6.5572935 19.1441068,7.1504582 L11.1031185,15.1906333 C10.5377618,14.2866072 10.2105263,13.2152016 10.2105263,12.0665188 C10.2105263,8.83363251 12.802562,6.21286031 16,6.21286031 Z M7.31578947,8.38580931 C8.04247993,8.38580931 8.63157895,8.98143936 8.63157895,9.71618625 C8.63157895,10.4509331 8.04247993,11.0465632 7.31578947,11.0465632 C6.58909901,11.0465632 6,10.4509331 6,9.71618625 C6,8.98143936 6.58909901,8.38580931 7.31578947,8.38580931 Z M24.6842105,8.38580931 C25.410901,8.38580931 26,8.98143936 26,9.71618625 C26,10.4509331 25.410901,11.0465632 24.6842105,11.0465632 C23.9575201,11.0465632 23.3684211,10.4509331 23.3684211,9.71618625 C23.3684211,8.98143936 23.9575201,8.38580931 24.6842105,8.38580931 Z M9.42105263,4.1286031 C10.1477431,4.1286031 10.7368421,4.72423315 10.7368421,5.45898004 C10.7368421,6.19372694 10.1477431,6.78935698 9.42105263,6.78935698 C8.69436217,6.78935698 8.10526316,6.19372694 8.10526316,5.45898004 C8.10526316,4.72423315 8.69436217,4.1286031 9.42105263,4.1286031 Z M23.3684211,5.45898004 C23.3684211,6.19372694 22.779322,6.78935698 22.0526316,6.78935698 C21.7365032,6.78935698 21.4464136,6.67663606 21.2195339,6.48877755 L23.0803439,4.62814208 C23.2606128,4.85580257 23.3684211,5.14466174 23.3684211,5.45898004 Z M22.0526316,4.1286031 L22.159,4.134 L20.7400565,5.55270147 C20.7379254,5.52174083 20.7368421,5.49048835 20.7368421,5.45898004 C20.7368421,4.72423315 21.3259411,4.1286031 22.0526316,4.1286031 Z M13.6315789,2 C14.3582694,2 14.9473684,2.59563004 14.9473684,3.33037694 C14.9473684,4.06512384 14.3582694,4.66075388 13.6315789,4.66075388 C12.9048885,4.66075388 12.3157895,4.06512384 12.3157895,3.33037694 C12.3157895,2.59563004 12.9048885,2 13.6315789,2 Z M18.3684211,2 C19.0951115,2 19.6842105,2.59563004 19.6842105,3.33037694 C19.6842105,4.06512384 19.0951115,4.66075388 18.3684211,4.66075388 C17.6417306,4.66075388 17.0526316,4.06512384 17.0526316,3.33037694 C17.0526316,2.59563004 17.6417306,2 18.3684211,2 Z" id="Combined-Shape" fill="#B2B2B2"></path>
        <g id="Group-8" transform="translate(8.000000, 4.000000)" stroke="#B2B2B2" stroke-linecap="square" stroke-width="2">
            <line x1="0.5" y1="16.5" x2="17" y2="0" id="Line-2"></line>
        </g>
    </g>
</svg>

<svg xmlns="http://www.w3.org/2000/svg" viewBox="0 0 32 24"><defs/><g fill="none" fill-rule="evenodd"><path fill="currentColor" d="M13.63 19.34c.73 0 1.32.6 1.32 1.33 0 .73-.6 1.33-1.32 1.33-.73 0-1.31-.6-1.31-1.33 0-.74.58-1.33 1.31-1.33zm4.74 0c.73 0 1.31.6 1.31 1.33 0 .73-.58 1.33-1.31 1.33-.73 0-1.32-.6-1.32-1.33 0-.74.6-1.33 1.32-1.33zm-7.1-.8a1.32 1.32 0 01-2.55.46l1.7-1.7c.49.19.84.67.84 1.24zm10.78-1.33c.73 0 1.32.6 1.32 1.33 0 .74-.6 1.33-1.32 1.33-.72 0-1.31-.6-1.31-1.33 0-.73.59-1.33 1.31-1.33zm-.26-5.14a5.82 5.82 0 01-7.68 5.53l7.38-7.39c.2.59.3 1.2.3 1.86zm-.73-2.84l-7.92 7.93c-.54-.31-1.02-.7-1.43-1.16l8.23-8.23c.44.42.83.91 1.12 1.46zM7.32 12.95c.72 0 1.31.6 1.31 1.33 0 .74-.59 1.33-1.31 1.33-.73 0-1.32-.6-1.32-1.33 0-.73.59-1.33 1.32-1.33zm17.36 0c.73 0 1.32.6 1.32 1.33 0 .74-.59 1.33-1.32 1.33-.72 0-1.31-.6-1.31-1.33 0-.73.59-1.33 1.31-1.33zM16 6.21c1.16 0 2.24.35 3.14.94l-8.04 8.04A5.87 5.87 0 0116 6.21zM7.32 8.4c.72 0 1.31.6 1.31 1.33 0 .73-.59 1.33-1.31 1.33-.73 0-1.32-.6-1.32-1.33 0-.74.59-1.33 1.32-1.33zm17.36 0c.73 0 1.32.6 1.32 1.33 0 .73-.59 1.33-1.32 1.33-.72 0-1.31-.6-1.31-1.33 0-.74.59-1.33 1.31-1.33zM9.42 4.13c.73 0 1.32.6 1.32 1.33 0 .73-.6 1.33-1.32 1.33-.73 0-1.31-.6-1.31-1.33 0-.74.58-1.33 1.31-1.33zm13.95 1.33c0 .73-.6 1.33-1.32 1.33-.31 0-.6-.11-.83-.3l1.86-1.86c.18.23.29.51.29.83zm-1.32-1.33h.1l-1.41 1.42v-.1c0-.73.59-1.32 1.31-1.32zM13.63 2c.73 0 1.32.6 1.32 1.33 0 .74-.6 1.33-1.32 1.33-.73 0-1.31-.6-1.31-1.33 0-.73.58-1.33 1.31-1.33zm4.74 0c.73 0 1.31.6 1.31 1.33 0 .74-.58 1.33-1.31 1.33-.73 0-1.32-.6-1.32-1.33 0-.73.6-1.33 1.32-1.33z"/><path stroke="#B2B2B2" stroke-linecap="square" stroke-width="2" d="M8.5 20.5L25 4"/></g></svg>
